src/assets/images/icons/npm.svg

<svg width="16" height="8" viewBox="0 0 16 8" fill="none" xmlns="http://www.w3.org/2000/svg">
<g clip-path="url(#clip0_52:61656)">
<path d="M0 0.888885H16V6.22222H8V7.11111H4.44444V6.22222H0V0.888885ZM0.888889 5.33333H2.66667V2.66666H3.55556V5.33333H4.44444V1.77777H0.888889V5.33333ZM5.33333 1.77777V6.22222H7.11111V5.33333H8.88889V1.77777H5.33333ZM7.11111 2.66666H8V4.44444H7.11111V2.66666ZM9.77778 1.77777V5.33333H11.5556V2.66666H12.4444V5.33333H13.3333V2.66666H14.2222V5.33333H15.1111V1.77777H9.77778Z" fill="#98A2B3"/>
</g>
<defs>
<clipPath id="clip0_52:61656">
<rect width="16" height="6.22222" fill="white" transform="translate(0 0.888885)"/>
</clipPath>
</defs>
</svg>

<svg width="16" height="8" fill="none" xmlns="http://www.w3.org/2000/svg"><g clip-path="url(#a)"><path d="M0 .889h16v5.333H8v.89H4.444v-.89H0V.89Zm.889 4.444h1.778V2.667h.889v2.666h.888V1.778H.89v3.555Zm4.444-3.555v4.444h1.778v-.889H8.89V1.778H5.333Zm1.778.889H8v1.777h-.889V2.667Zm2.667-.89v3.556h1.778V2.667h.888v2.666h.89V2.667h.888v2.666h.89V1.778H9.777Z" fill="#98A2B3"/></g><defs><clipPath id="a"><path fill="#fff" transform="translate(0 .889)" d="M0 0h16v6.222H0z"/></clipPath></defs></svg>
